src/icons/npm.svg

<?xml version="1.0" encoding="UTF-8"?>
<svg xmlns="http://www.w3.org/2000/svg" xmlns:xlink="http://www.w3.org/1999/xlink" width="32" height="32" viewBox="0 0 32 32" version="1.1">
<g id="surface1">
<path style=" stroke:none;fill-rule:nonzero;fill:rgb(0%,0%,0%);fill-opacity:1;" d="M 0 10 L 0 21 L 9 21 L 9 23 L 16 23 L 16 21 L 32 21 L 32 10 Z M 1.777344 11.777344 L 8.890625 11.777344 L 8.890625 19.445312 L 7.109375 19.445312 L 7.109375 13.558594 L 5.335938 13.558594 L 5.335938 19.445312 L 1.777344 19.445312 Z M 10.667969 11.777344 L 17.78125 11.777344 L 17.78125 19.441406 L 14.222656 19.441406 L 14.222656 21.222656 L 10.667969 21.222656 Z M 19.558594 11.777344 L 30.222656 11.777344 L 30.222656 19.445312 L 28.445312 19.445312 L 28.445312 13.558594 L 26.667969 13.558594 L 26.667969 19.445312 L 24.890625 19.445312 L 24.890625 13.558594 L 23.109375 13.558594 L 23.109375 19.445312 L 19.558594 19.445312 Z M 14.222656 13.558594 L 14.222656 17.667969 L 16 17.667969 L 16 13.558594 Z M 14.222656 13.558594 "/>
</g>
</svg>

<svg role="img" viewBox="0 0 32 32" xmlns="http://www.w3.org/2000/svg"><path d="M0 10v11h9v2h7v-2h16V10Zm1.777 1.777h7.114v7.668H7.109V13.56H5.336v5.886H1.777Zm8.891 0h7.113v7.664h-3.558v1.782h-3.555Zm8.89 0h10.665v7.668h-1.778V13.56h-1.777v5.886h-1.777V13.56h-1.782v5.886h-3.55Zm-5.335 1.782v4.109H16v-4.11Zm0 0" style="stroke:none;fill-rule:nonzero;fill:rgb(0%,0%,0%);fill-opacity:1"/></svg>
